X:1
T:When Peace Like a River
T:Text: Horatio G. Spafford, 1873 Tune: Philip P. Bliss, 1876
T:11 8 11 9 with refrain VILLE DU HAVRE www.hymnary.org/text/when_peace_like_a_river_attendeth_my_way
T:When Peace Like a River
T:This hymn is in the public domain. You may freely use this score for personal and congregational worship. If you reproduce the score, please credit Hymnary.org as the source. 
T:This hymn is in the public domain. You may freely use this score for personal and congregational worship. If you reproduce the score, please credit Hymnary.org as the source. 
T:This hymn is in the public domain. You may freely use this score for personal and congregational worship. If you reproduce the score, please credit Hymnary.org as the source. 
Z:This hymn is in the public domain. You may freely use this score for personal and congregational worship. If you reproduce the score, please credit Hymnary.org as the source.
%%score ( 1 2 ) ( 3 4 )
L:1/8
M:4/4
K:C
V:1 treble nm="SOPRANO ALTO" snm="S. A."
V:2 treble 
V:3 bass nm="TENOR BASS" snm="T. B."
V:4 bass 
V:1
"^1""^2""^3" G2 | G4 F2 E2 | E4 D2 E2 | (F2 A2) G2 F2 | E6 G2 | c4 B2 A2 | A4 G2 ^F2 | G6 G2 | %8
w: When|peace like a|riv- er at-|tend- * eth my|way, when|sor- rows like|sea bil- lows|roll; what-|
w: Though|Sa- tan should|buf- fet, though|tri- * als should|come, let|this blest as-|su- rance con-|trol: that|
w: My|sin— oh, the|bliss of this|glo- * ri- ous|thought!— my|sin, not in|part, but the|whole, is|
 c4 c2 B2 | A4 A2 A2 |1 d4 d2 c2 | B4 A2 G2 | c4 c2 c2 | c4 B3 c | c4 || %15
w: ev- er my|lot, thou hast|taught me to|say, "It is|well, it is|well with my|soul."|
w: Christ has re-|gard- ed my|help- less es-|tate, and has|shed his own|blood for my|soul.|
w: nailed to the|cross, and I|bear it no|more; praise the|Lord, praise the|Lord, O my|soul!|
"^Page 2""^Refrain (may be sung after final stanza only)" G2 G2 | G8- | G4 G2 G2 | %18
w: It is|well|* with my|
w: |||
w: |||
"^When Peace Like a River" G8- | G4 | E2 G2 | A4 A2 c2 | c4 B3 c | c6 x2 |] %24
w: soul;||it is|well, it is|well with my|soul.|
w: ||||||
w: ||||||
V:2
 E2 | E4 D2 C2 | C4 B,2 C2 | B,4 B,2 D2 | C6 E2 | E4 D2 C2 | E4 D2 D2 | D6 =F2 | E4 E2 G2 | %9
 F4 A2 G2 |1 F4 F2 ^F2 | G4 G2 G2 | G4 C2 D2 | E4 D3 E | E4 || z4 | z4 E2 E2 | D4 z4 | z4 D2 F2 | %19
 E4 | C2 E2 | F4 F2 F2 | E4 D3 E | E6 x2 |] %24
V:3
 G,2 | G,4 G,2 G,2 | G,4 G,2 G,2 | G,4 G,2 G,2 | G,6 G,2 | A,4 ^G,2 A,2 | C4 B,2 A,2 | B,6 B,2 | %8
w: ||||||||
 C4 C2 C2 | C4 C2 ^C2 |1 D4 A,2 D2 | D4 C2 B,2 | C4 G,2 A,2 | G,4 G,3 G, | G,4 || z4 | z4 G,2 C2 | %17
w: ||||||||it is|
 B,4 z4 | z4 B,2 D2 | C4 | G,2 C2 | C4 C2 A,2 | G,4 G,3 G, | G,6 x2 |] %24
w: well|with my|soul;|||||
V:4
 C,2 | C,4 C,2 C,E, | G,4 F,2 E,2 | D,4 G,,2 G,,2 | C,6 C,2 | A,,4 B,,2 C,2 | C,4 D,2 D,2 | %7
 G,,6 G,2 | C,4 C,2 E,2 | F,4 F,2 E,2 |1 D,4 D,2 D,2 | G,4 G,2 G,F, | E,4 E,2 F,2 | G,4 G,,3 G,, | %14
 C,4 || x4 | x4 C,2 E,2 | G,4 x4 | x4 G,,2 G,,2 | C,4 | C,2 C,2 | F,4 F,2 F,2 | G,4 G,,3 G,, | %23
 C,6 x2 |] %24

